dist/svgs/unicons/line/pen.svg

<svg xmlns="http://www.w3.org/2000/svg" viewBox="0 0 24 24"><path d="M22 7.24a1 1 0 00-.29-.71l-4.24-4.24a1 1 0 00-.71-.29 1 1 0 00-.71.29l-2.83 2.83L2.29 16.05a1 1 0 00-.29.71V21a1 1 0 001 1h4.24a1 1 0 00.76-.29l10.87-10.93L21.71 8a1.19 1.19 0 00.22-.33 1 1 0 000-.24.7.7 0 000-.14zM6.83 20H4v-2.83l9.93-9.93 2.83 2.83zM18.17 8.66l-2.83-2.83 1.42-1.41 2.82 2.82z"/></svg>

<svg xmlns="http://www.w3.org/2000/svg" viewBox="0 0 24 24"><path d="M22,7.24a1,1,0,0,0-.29-.71L17.47,2.29A1,1,0,0,0,16.76,2a1,1,0,0,0-.71.29L13.22,5.12h0L2.29,16.05a1,1,0,0,0-.29.71V21a1,1,0,0,0,1,1H7.24A1,1,0,0,0,8,21.71L18.87,10.78h0L21.71,8a1.19,1.19,0,0,0,.22-.33,1,1,0,0,0,0-.24.7.7,0,0,0,0-.14ZM6.83,20H4V17.17l9.93-9.93,2.83,2.83ZM18.17,8.66,15.34,5.83l1.42-1.41,2.82,2.82Z"/></svg>
